X: 168
T: SINGLE JIG: Kevin McHugh's
C: C: Trad.; S: Various
C: Set Leaders: Tania, Anton, Sophie
Z: Anton Zille ed., Oleg Naumov arr.; R-O-I-S-I-N at The Session
N: https://thesession.org/members/26966/sets/92422
R: Single Jig
M: 12/8
L: 1/8
Q: 3/8=116
K: Gmaj
|:"G"B2d ded BAB G2B|"C"AGE DEG "D"AGE D3|
"G"Bdd ded BAB G2B|"C"AGE DEG "D"AGF G2A:||
|:"G"BAB GAB "C"cBc ABc|"G (Em)"B2G GFG "D"ABc d2c|
"G"B2G GAB "C"cec "(G/B)"BdB|"Am"AGE DEG "D"AGF G2A:||

